usr/share/icons/big-icons/symbolic/actions/format-text-superscript.svg

<svg xmlns="http://www.w3.org/2000/svg" viewBox="0 0 16 16">
  <defs id="defs3051">
    <style type="text/css" id="current-color-scheme">
      .ColorScheme-Text {
        color:#eff0f1;
      }
      </style>
  </defs>
 <path style="fill:currentColor;fill-opacity:1;stroke:none" 
       d="M 6.3828125 2 L 2 13 L 3.3574219 13 L 4.546875 10 L 9.4746094 10 L 10.626953 13 L 12 13 L 7.7480469 2 L 6.3828125 2 z M 11 2 L 11 7 L 12 7 L 13.5 7 C 14.32843 7 15 6.32843 15 5.5 C 15 4.9667 14.73181 4.48473 14.3125 4.21875 C 14.42796 4.00621 14.5 3.75888 14.5 3.5 C 14.5 2.67157 13.82844 2 13 2 L 12 2 L 11 2 z M 12 3 L 13 3 C 13.27614 3 13.5 3.22386 13.5 3.5 C 13.5 3.77614 13.27614 4 13 4 L 12 4 L 12 3 z M 7.0625 3.328125 C 7.17566 3.704205 7.773975 5.4100894 8.859375 8.4433594 L 9.0839844 9 L 4.9414062 9 L 7.0625 3.328125 z M 12 5 L 13 5 L 13.5 5 C 13.77615 5 14 5.22386 14 5.5 C 14 5.77614 13.77615 6 13.5 6 L 12 6 L 12 5 z "
     class="ColorScheme-Text"
     />
</svg>

<svg xmlns="http://www.w3.org/2000/svg" viewBox="0 0 16 16">
<defs id="defs3051">
<style id="current-color-scheme" type="text/css">
.ColorScheme-Text{color:#fcfcfc}
</style>
</defs>
<path d="M6.383 2 2 13h1.357l1.19-3h4.928l1.152 3H12L7.748 2zM11 2v5h2.5A1.5 1.5 0 0 0 15 5.5c0-.533-.268-1.015-.687-1.281A1.5 1.5 0 0 0 14.5 3.5 1.5 1.5 0 0 0 13 2zm1 1h1a.5.5 0 0 1 0 1h-1zm-4.937.328q.169.565 1.796 5.115L9.084 9H4.941zM12 5h1.5a.5.5 0 1 1 0 1H12z" class="ColorScheme-Text" style="fill:currentColor;fill-opacity:1;stroke:none"/>
</svg>
